X:371
T:Up to Your Knees in Sand
Z: id:dc-reel-343
M:C
L:1/8
K:E Minor
F|G2GF GABc|dBeB dBAF|DFAF BFAF|DFAF BFAF|!
G2GF GABc|dBeB dBA2|Bee2 dBAF|DEFG E3:|!
F|GBB2 GBAG|FAA2 FAD2|GBB2 GBdB|AGFG E3F|!
GBB2 GBAG|FAA2 FAD2|G2GF GBdB|AGFG E3:|!